icons/discharge_fill.svg

<svg width="48" height="48" viewBox="0 0 48 48" fill="none" xmlns="http://www.w3.org/2000/svg">
<path fill-rule="evenodd" clip-rule="evenodd" d="M23 13V10H25V13H28V15H25V18H23V15H20V13H23ZM4.6489 20.0637C4.13178 20.2576 3.86978 20.834 4.0637 21.3511L6.95436 29.0596L5.21925 36H5.00003C4.44774 36 4.00003 36.4477 4.00003 37C4.00003 37.5523 4.44774 38 5.00003 38H5.97911C5.9936 38.0003 6.00805 38.0003 6.02245 38H17.9769C17.992 38.0003 18.007 38.0003 18.0221 38H29.9779C29.993 38.0003 30.0081 38.0003 30.0231 38H41.9776C41.9867 38.0002 41.9959 38.0003 42.0051 38.0002L42.0209 38H43C43.5523 38 44 37.5523 44 37C44 36.4477 43.5523 36 43 36H42.7808L41.0457 29.0596L43.9364 21.3511C44.1303 20.834 43.8683 20.2576 43.3512 20.0637C42.834 19.8698 42.2576 20.1318 42.0637 20.6489L41.788 21.3841C41.671 21.2342 41.5101 21.1159 41.3163 21.0513C40.7923 20.8767 40.226 21.1598 40.0513 21.6838L39.2793 24H30V26H32V28H31C30.4477 28 30 28.4477 30 29C30 29.539 30.4264 29.9783 30.9602 29.9992L29.2457 36H18.7543L17.0398 29.9992C17.5737 29.9783 18 29.539 18 29C18 28.4477 17.5523 28 17 28H16V26H18V24H8.72079L7.94871 21.6838C7.77406 21.1598 7.20774 20.8767 6.6838 21.0513C6.48992 21.1159 6.32901 21.2342 6.21207 21.3841L5.93636 20.6489C5.74244 20.1318 5.16602 19.8698 4.6489 20.0637ZM34 28H39.307L40.057 26H40.0234C40.0079 26.0004 39.9925 26.0004 39.977 26H34V28ZM14 26V28H8.69303L7.94303 26H7.9767C7.99211 26.0004 8.00758 26.0004 8.02307 26H14ZM31.3258 36H40.7192L39.4692 31H32.7543L31.3258 36ZM15.2457 31L16.6743 36H7.2808L8.5308 31H15.2457Z" fill="black"/>
</svg>

<svg
  xmlns="http://www.w3.org/2000/svg"
  width="24"
  height="24"
  viewBox="0 0 24 24"
  fill="none"
  stroke="currentColor"
  stroke-width="2"
  stroke-linecap="round"
  stroke-linejoin="round"
>
  <path
    fill-rule="evenodd"
    d="M23 13v-3h2v3h3v2h-3v3h-2v-3h-3v-2zM4.649 20.064a1 1 0 0 0-.585 1.287l2.89 7.709L5.22 36H5a1 1 0 1 0 0 2h38a1 1 0 1 0 0-2h-.22l-1.734-6.94 2.89-7.709a1 1 0 1 0-1.872-.702l-.276.735a1 1 0 0 0-1.737.3L39.28 24H30v2h2v2h-1a1 1 0 0 0-.04 2l-1.714 6H18.754l-1.714-6a1 1 0 0 0-.04-2h-1v-2h2v-2H8.72l-.771-2.316a1 1 0 0 0-1.737-.3l-.276-.735a1 1 0 0 0-1.287-.585M34 28h5.307l.75-2H34zm-20-2v2H8.693l-.75-2H14m17.326 10h9.393l-1.25-5h-6.715zm-16.08-5 1.428 5H7.281l1.25-5z"
    clip-rule="evenodd"
  />
</svg>
